ids-wordpress/site-IdS/assets/images/projetos/icones-ferramentasetec/WordPress.svg

<svg width="37" height="36" viewBox="0 0 37 36" fill="none" xmlns="http://www.w3.org/2000/svg">
<g clip-path="url(#clip0_694_1634)">
<path d="M16.6305 0.506093C28.8004 -0.513768 38.4814 9.80535 35.758 21.908C32.5018 36.3814 13.283 40.3669 4.43659 28.4597C-3.61322 17.6243 3.12497 1.63885 16.6305 0.506093ZM17.2635 1.64646C4.38712 2.57372 -2.43987 17.519 5.44757 27.8292C12.4509 36.9839 26.4562 36.3382 32.5538 26.562C39.7157 15.0835 30.5737 0.687486 17.2635 1.64646Z" fill="#F75705"/>
<path d="M18.1525 5.82579C28.5427 5.56828 34.0745 17.4045 27.8095 25.4924C22.4108 32.4627 10.9792 30.8771 7.63297 22.7296C4.44653 14.9703 9.54584 6.03889 18.1525 5.82452V5.82579ZM9.81095 11.4934H13.5504C13.7471 11.4934 14.1555 12.4118 13.3044 12.5145C13.0392 12.5462 12.3023 12.3407 12.3479 12.6934L15.6434 23.0252C15.8236 23.0112 15.8426 22.8387 15.9009 22.7131C16.213 22.0332 17.7035 17.5364 17.6667 17.0202L16.265 12.5196C15.6117 12.479 14.5386 12.7352 14.8164 11.7458C14.9407 11.5365 15.1018 11.5162 15.3213 11.487C16.4616 11.3374 20.1364 11.3475 21.2907 11.487C21.4265 11.5035 21.5825 11.482 21.6726 11.6113C21.925 12.7099 21.5013 12.4282 20.7745 12.5069C20.6007 12.5259 20.5449 12.4435 20.6007 12.6819L24.0091 22.7715C24.6662 20.3766 26.059 17.8333 25.3423 15.295C24.897 13.7183 23.451 12.8608 24.2019 10.9872C24.4619 10.3391 25.0163 9.95343 25.53 9.52976C21.0104 5.41734 13.1103 6.31035 9.81349 11.4946L9.81095 11.4934ZM25.0214 23.4044C25.681 20.8218 26.9545 18.2087 27.5938 15.6477C27.9896 14.0621 28.1989 11.9602 26.867 10.7272C26.1351 10.0511 25.0822 11.0596 25.029 11.8244C24.963 12.7581 26.1262 14.2929 26.3812 15.394C27.0661 18.3546 25.5884 20.355 24.9529 23.0176C24.9224 23.1457 24.7867 23.4324 25.0214 23.4032V23.4044ZM11.205 12.5069H9.17671L9.26297 13.7513L14.394 28.0103L14.9496 28.3274L17.4155 21.5055L16.09 24.8023C15.8147 25.0852 15.3212 24.9177 15.1322 24.612L11.205 12.5069ZM19.3817 12.5069H17.4168C17.5068 13.9136 18.6421 15.7593 18.755 17.0633C18.802 17.6011 18.4557 17.9588 18.4328 18.4624C18.7538 18.2557 18.7385 17.7102 19.1939 18.177L22.5541 28.0966C22.6531 28.1067 23.4357 27.8492 23.4725 27.8112C23.645 27.6374 24.2412 25.2387 24.3884 24.7985C24.0611 25.056 23.6932 25.2526 23.4738 24.763L19.3829 12.5056L19.3817 12.5069ZM13.1065 27.3317L8.29131 14.2815C6.99111 18.7846 8.18602 23.629 11.9065 26.5693C12.0625 26.6924 12.9999 27.437 13.1077 27.3317H13.1065ZM24.8958 26.6987C25.1342 26.7532 25.1964 26.5642 25.3385 26.4463C28.7723 23.6214 30.0877 18.928 28.9498 14.6608L24.8958 26.6987ZM21.6002 28.2183L18.8743 20.8713L16.0215 28.472C17.8595 29.1291 19.8104 28.935 21.6002 28.2183Z" fill="#F75705"/>
</g>
<defs>
<clipPath id="clip0_694_1634">
<rect width="35.2537" height="35.0305" fill="white" transform="translate(0.967072 0.436035)"/>
</clipPath>
</defs>
</svg>

<svg xmlns="http://www.w3.org/2000/svg" width="37" height="36" fill="none"><g fill="#F75705" clip-path="url(#a)"><path d="M16.63.506c12.17-1.02 21.851 9.3 19.128 21.402-3.256 14.473-22.475 18.459-31.321 6.552C-3.613 17.624 3.125 1.639 16.63.506Zm.634 1.14C4.386 2.574-2.44 17.52 5.447 27.83c7.003 9.155 21.008 8.51 27.106-1.267 7.162-11.479-1.98-25.875-15.29-24.916Z"/><path d="M18.152 5.826c10.39-.258 15.922 11.578 9.657 19.666-5.398 6.97-16.83 5.385-20.176-2.762-3.186-7.76 1.913-16.691 10.52-16.905Zm-8.341 5.667h3.74c.196 0 .604.919-.247 1.021-.265.032-1.002-.173-.956.18l3.295 10.331c.18-.014.2-.186.258-.312.312-.68 1.802-5.177 1.766-5.693l-1.402-4.5c-.653-.041-1.726.215-1.449-.774.125-.21.286-.23.505-.259 1.14-.15 4.815-.14 5.97 0 .136.017.291-.005.382.124.252 1.099-.172.817-.898.896-.174.019-.23-.063-.174.175l3.408 10.09c.657-2.395 2.05-4.939 1.333-7.477-.445-1.577-1.891-2.434-1.14-4.308.26-.648.814-1.034 1.328-1.457-4.52-4.113-12.42-3.22-15.717 1.965l-.002-.002Zm15.21 11.911c.66-2.582 1.933-5.195 2.573-7.756.396-1.586.605-3.688-.727-4.92-.732-.677-1.785.332-1.838 1.096-.066.934 1.097 2.469 1.352 3.57.685 2.96-.793 4.961-1.428 7.624-.03.128-.166.414.068.385v.001ZM11.205 12.507H9.177l.086 1.244 5.131 14.26.556.316 2.466-6.822-1.326 3.297c-.275.283-.769.116-.958-.19l-3.927-12.105Zm8.177 0h-1.965c.09 1.407 1.225 3.252 1.338 4.556.047.538-.3.896-.322 1.4.32-.207.305-.753.76-.286l3.361 9.92c.1.01.882-.248.919-.286.172-.174.768-2.572.915-3.012-.327.257-.695.454-.914-.036l-4.091-12.257h-.001Zm-6.276 14.825-4.815-13.05c-1.3 4.503-.105 9.347 3.615 12.287.156.123 1.094.868 1.202.763h-.002Zm11.79-.633c.238.054.3-.135.442-.253 3.434-2.825 4.75-7.518 3.612-11.785l-4.054 12.038Zm-3.296 1.52-2.726-7.348-2.852 7.601c1.838.657 3.788.463 5.578-.254Z"/></g><defs><clipPath id="a"><path fill="#fff" d="M.967.436h35.254v35.031H.967z"/></clipPath></defs></svg>
